X: 38416
T: Star Of The County Down, The
R: waltz
M: 3/4
K: Aminor
E2 G2|A4 AB|A3 G A2|c4 c2|d3 c d2|e2 d2 c2|A2 G2 E2|G6-|G2 c2 B2|
A4 AB|A3 G A2|c4 c2|d3 c d2|e2 d2 c2|A4 G2|A6-|A2-||
A2 e2|g4 e2|e3 d c2|d6|d4 cd|e3 d c2|A2 G2 E2|G6-|G2 c2 B2|
A4 AB|A3 G A2|c4 c2|d3 c d2|e2 d2 c2|A4 G2|A6-|A2-||

